X:1
N: Banks of Clyde
N: 8x32S 3C
P: Banks O' Clyde
C: from Barbara McOwen
C: Arr. T. Traub 7-24-03
K: G
M: 4/4
L: 1/8
B|"G"G>B d<g "C"e2 "G"d2|"C"e>g"D"f>a "G"g>ed>B|"G"G>B d<g "C"e2 "G"d2 |"Am"e>a "D"f<d "G"g2 g :|
a|"G"b>a gf d2|"C"e>c G<g "G"d>B G2|"G"b>a gf d2|"Am"e>a "D"f<d "G"g2 ga|
"G"b>a gf d2|"C"e>c G<g "D"d>BA>B|"G"G>B d<g "C"e>fg>a|"G"b>g "D"f<a "G"g2 g |]
